src/images/javascript.svg

<?xml version="1.0" encoding="UTF-8"?>
<svg width="100px" height="100px" viewBox="0 0 100 100" version="1.1" xmlns="http://www.w3.org/2000/svg" xmlns:xlink="http://www.w3.org/1999/xlink">
    <!-- Generator: Sketch 51.3 (57544) - http://www.bohemiancoding.com/sketch -->
    <title>javascript</title>
    <desc>Created with Sketch.</desc>
    <defs></defs>
    <g id="Welcome" stroke="none" stroke-width="1" fill="none" fill-rule="evenodd">
        <g id="Desktop-HD" transform="translate(-672.000000, -932.000000)" fill-rule="nonzero">
            <g id="Group-3" transform="translate(0.000000, 587.000000)">
                <g id="javascript" transform="translate(672.000000, 345.000000)">
                    <rect id="Rectangle-path" fill="#F0DB4F" x="0" y="0" width="100" height="100"></rect>
                    <path d="M91.7284835,75.9473186 C90.9941924,71.360544 88.0102634,67.50952 79.1721066,63.9166973 C76.1022368,62.5023459 72.6795791,61.4896867 71.6593657,59.1582682 C71.2969377,57.8010664 71.2493524,57.0369466 71.4782543,56.2148549 C72.1362447,53.5489669 75.3109254,52.7176243 77.8280258,53.4821552 C79.448799,54.0265161 80.9838365,55.2786693 81.908674,57.2756184 C86.2372992,54.4662396 86.2274539,54.4855636 89.2499435,52.555015 C88.1437895,50.8351801 87.5526647,50.0418687 86.8282189,49.3061182 C84.2253827,46.3916908 80.678839,44.8914093 75.0059279,45.0061198 C74.0238649,45.1302867 73.0323669,45.2641156 72.0503039,45.3884881 C69.218771,46.1051202 66.5205591,47.5957397 64.9379363,49.5928944 C60.1898627,54.9920987 61.5439938,64.4423509 67.3215106,68.3316117 C73.0132918,72.6124917 81.3749798,73.5871196 82.4425733,77.591091 C83.4818618,82.493011 78.8482392,84.0792225 74.2433318,83.5155377 C70.8491843,82.8085676 68.9613589,81.0786595 66.9209323,77.9350168 C63.164767,80.1136936 63.164767,80.1136936 59.3033806,82.3400637 C60.218578,84.3468803 61.1815658,85.2546966 62.7166033,86.9936499 C69.9815722,94.3801413 88.1630697,94.0173026 91.4234861,82.8369368 C91.5570122,82.4547741 92.4340592,79.8937291 91.7284835,75.9473186 Z M54.1643688,45.5983795 L44.7826726,45.5983795 L44.7445223,69.9079558 C44.7445223,75.0775336 45.0115745,79.8172554 44.1724727,81.2700493 C42.7994715,84.1269158 39.2432877,83.7735335 37.6223094,83.2190995 C35.972821,82.4068753 35.1339242,81.2507253 34.1615014,79.6168205 C33.8946543,79.1485221 33.6942626,78.7854778 33.6273969,78.7566974 C31.0817863,80.3141286 28.5458158,81.8814273 26,83.4388585 C27.2679853,86.0475968 29.1367355,88.3124093 31.5297448,89.7837048 C35.1052089,91.9336012 39.9100978,92.5930836 44.9346586,91.436728 C48.204715,90.4814241 51.0270181,88.5031822 52.5046249,85.4933684 C54.6402223,81.5467523 54.1826236,76.7689992 54.1635484,71.4845053 C54.2119542,62.8653902 54.1643688,54.246275 54.1643688,45.5983795 Z" id="Shape" fill="#323330"></path>
                </g>
            </g>
        </g>
    </g>
</svg>

<svg width="100" height="100" xmlns="http://www.w3.org/2000/svg"><g fill-rule="nonzero" fill="none"><path fill="#F0DB4F" d="M0 0h100v100H0z"/><path d="M91.728 75.947c-.734-4.586-3.718-8.437-12.556-12.03-3.07-1.415-6.492-2.427-7.513-4.759-.362-1.357-.41-2.121-.18-2.943.657-2.666 3.832-3.497 6.349-2.733 1.62.545 3.156 1.797 4.08 3.794 4.33-2.81 4.32-2.79 7.342-4.721-1.106-1.72-1.697-2.513-2.422-3.249-2.603-2.914-6.15-4.415-11.822-4.3-.982.124-1.974.258-2.956.382-2.831.717-5.53 2.208-7.112 4.205-4.748 5.4-3.394 14.85 2.384 18.739 5.691 4.28 14.053 5.255 15.12 9.26 1.04 4.901-3.594 6.487-8.199 5.924-3.394-.707-5.282-2.437-7.322-5.581-3.756 2.179-3.756 2.179-7.618 4.405.916 2.007 1.879 2.915 3.414 4.654 7.265 7.386 25.446 7.023 28.706-4.157.134-.382 1.011-2.943.305-6.89zM54.164 45.598h-9.381l-.038 24.31c0 5.17.267 9.91-.573 11.362-1.373 2.857-4.929 2.504-6.55 1.95-1.65-.813-2.488-1.97-3.46-3.603-.267-.468-.468-.832-.535-.86-2.545 1.557-5.081 3.124-7.627 4.682 1.268 2.609 3.137 4.873 5.53 6.345 3.575 2.15 8.38 2.81 13.405 1.653 3.27-.956 6.092-2.934 7.57-5.944 2.135-3.946 1.678-8.724 1.659-14.008.048-8.62 0-17.239 0-25.887z" fill="#323330"/></g></svg>
